img/totop.svg

<svg width="14" height="15" viewBox="0 0 14 15" fill="none" xmlns="http://www.w3.org/2000/svg">
<path d="M1.09789 8.08532C1.41159 8.39661 1.88022 8.36355 2.19163 8.0811L5.7395 4.28611L5.77414 13.2548C5.77583 13.6923 6.12079 14.0035 6.52704 14.0019L7.52703 13.998C7.96452 13.9963 8.27582 13.6826 8.27413 13.2451L8.23948 4.27646L11.8478 8.0438C12.1614 8.32384 12.6301 8.32203 12.9416 8.03957L13.6264 7.34942C13.9064 7.03584 13.9046 6.56709 13.6223 6.28693L7.50504 0.216764C7.22271 -0.0633978 6.75396 -0.061587 6.44255 0.220868L0.403635 6.33799C0.123474 6.62033 0.125284 7.08907 0.407739 7.40048L1.09789 8.08532Z" fill="#FAAD13"/>
</svg>

<svg width="14" height="15" fill="none" xmlns="http://www.w3.org/2000/svg"><path d="M1.098 8.085c.314.312.782.279 1.094-.004l3.547-3.795.035 8.969a.74.74 0 0 0 .753.747l1-.004a.722.722 0 0 0 .747-.753L8.24 4.276l3.609 3.768a.814.814 0 0 0 1.094-.004l.684-.69c.28-.314.279-.783-.004-1.063L7.505.217c-.282-.28-.751-.279-1.062.004L.403 6.338c-.28.282-.278.751.005 1.062l.69.685z" fill="#FAAD13"/></svg>
